images/3247265.svg

<?xml version="1.0" encoding="UTF-8"?>
<svg xmlns="http://www.w3.org/2000/svg" xmlns:xlink="http://www.w3.org/1999/xlink" width="300pt" height="300pt" viewBox="0 0 300 300" version="1.1">
<defs>
<g>
<symbol overflow="visible" id="glyph0-0">
<path style="stroke:none;" d="M 0.453125 1.59375 L 0.453125 -6.34375 L 4.953125 -6.34375 L 4.953125 1.59375 Z M 0.953125 1.09375 L 4.453125 1.09375 L 4.453125 -5.84375 L 0.953125 -5.84375 Z M 0.953125 1.09375 "/>
</symbol>
<symbol overflow="visible" id="glyph0-1">
<path style="stroke:none;" d="M 0.890625 -6.5625 L 2.078125 -6.5625 L 4.984375 -1.078125 L 4.984375 -6.5625 L 5.84375 -6.5625 L 5.84375 0 L 4.65625 0 L 1.75 -5.484375 L 1.75 0 L 0.890625 0 Z M 0.890625 -6.5625 "/>
</symbol>
<symbol overflow="visible" id="glyph0-2">
<path style="stroke:none;" d="M 0.890625 -6.5625 L 1.765625 -6.5625 L 1.765625 -3.875 L 5 -3.875 L 5 -6.5625 L 5.890625 -6.5625 L 5.890625 0 L 5 0 L 5 -3.125 L 1.765625 -3.125 L 1.765625 0 L 0.890625 0 Z M 0.890625 -6.5625 "/>
</symbol>
<symbol overflow="visible" id="glyph0-3">
<path style="stroke:none;" d="M 3.546875 -5.953125 C 2.898438 -5.953125 2.382812 -5.710938 2 -5.234375 C 1.625 -4.753906 1.4375 -4.101562 1.4375 -3.28125 C 1.4375 -2.445312 1.625 -1.789062 2 -1.3125 C 2.382812 -0.832031 2.898438 -0.59375 3.546875 -0.59375 C 4.191406 -0.59375 4.703125 -0.832031 5.078125 -1.3125 C 5.453125 -1.789062 5.640625 -2.445312 5.640625 -3.28125 C 5.640625 -4.101562 5.453125 -4.753906 5.078125 -5.234375 C 4.703125 -5.710938 4.191406 -5.953125 3.546875 -5.953125 Z M 3.546875 -6.6875 C 4.460938 -6.6875 5.195312 -6.375 5.75 -5.75 C 6.300781 -5.132812 6.578125 -4.3125 6.578125 -3.28125 C 6.578125 -2.238281 6.300781 -1.410156 5.75 -0.796875 C 5.195312 -0.179688 4.460938 0.125 3.546875 0.125 C 2.617188 0.125 1.878906 -0.179688 1.328125 -0.796875 C 0.773438 -1.410156 0.5 -2.238281 0.5 -3.28125 C 0.5 -4.3125 0.773438 -5.132812 1.328125 -5.75 C 1.878906 -6.375 2.617188 -6.6875 3.546875 -6.6875 Z M 3.546875 -6.6875 "/>
</symbol>
</g>
</defs>
<g id="surface39733">
<rect x="0" y="0" width="300" height="300" style="fill:rgb(100%,100%,100%);fill-opacity:1;stroke:none;"/>
<path style=" stroke:none;fill-rule:nonzero;fill:rgb(0%,0%,0%);fill-opacity:1;" d="M 140.449219 182.074219 L 139.960938 199.25 L 145.871094 198.382812 Z M 140.449219 182.074219 "/>
<path style="fill:none;stroke-width:1.2;stroke-linecap:butt;stroke-linejoin:miter;stroke:rgb(0%,0%,0%);stroke-opacity:1;stroke-miterlimit:10;" d="M 140.449219 182.074219 L 153.714844 171.566406 "/>
<path style="fill:none;stroke-width:1.2;stroke-linecap:butt;stroke-linejoin:miter;stroke:rgb(0%,0%,0%);stroke-opacity:1;stroke-miterlimit:10;" d="M 140.449219 182.074219 L 124.714844 175.835938 "/>
<path style="fill:none;stroke-width:1;stroke-linecap:butt;stroke-linejoin:miter;stroke:rgb(0%,0%,0%);stroke-opacity:1;stroke-miterlimit:10;" d="M 153.714844 171.566406 L 153.714844 171.566406 M 156.714844 171.652344 L 156.5625 170.621094 M 159.714844 171.738281 L 159.410156 169.671875 M 162.714844 171.820312 L 162.257812 168.726562 M 165.710938 171.90625 L 165.105469 167.78125 M 168.710938 171.992188 L 167.949219 166.835938 M 170.894531 172.054688 L 170.023438 166.144531 "/>
<path style="fill:none;stroke-width:1.2;stroke-linecap:butt;stroke-linejoin:miter;stroke:rgb(0%,0%,0%);stroke-opacity:1;stroke-miterlimit:10;" d="M 159.953125 155.832031 L 153.714844 171.566406 "/>
<path style="fill:none;stroke-width:1.2;stroke-linecap:butt;stroke-linejoin:miter;stroke:rgb(0%,0%,0%);stroke-opacity:1;stroke-miterlimit:10;" d="M 170.460938 169.101562 L 159.953125 155.832031 "/>
<path style="fill:none;stroke-width:1;stroke-linecap:butt;stroke-linejoin:miter;stroke:rgb(0%,0%,0%);stroke-opacity:1;stroke-miterlimit:10;" d="M 159.953125 155.832031 L 159.953125 155.832031 M 157.710938 153.839844 L 157.164062 154.726562 M 155.46875 151.847656 L 154.375 153.621094 M 153.226562 149.855469 L 151.585938 152.519531 M 150.984375 147.859375 L 148.796875 151.414062 M 148.742188 145.867188 L 146.007812 150.308594 M 147.105469 144.417969 L 143.976562 149.503906 "/>
<path style="fill:none;stroke-width:1.2;stroke-linecap:butt;stroke-linejoin:miter;stroke:rgb(0%,0%,0%);stroke-opacity:1;stroke-miterlimit:10;" d="M 159.953125 155.832031 L 171.195312 143.179688 "/>
<path style=" stroke:none;fill-rule:nonzero;fill:rgb(0%,0%,0%);fill-opacity:1;" d="M 171.195312 143.179688 L 168.691406 126.179688 L 163.023438 128.0625 Z M 171.195312 143.179688 "/>
<path style="fill:none;stroke-width:1.2;stroke-linecap:butt;stroke-linejoin:miter;stroke:rgb(0%,0%,0%);stroke-opacity:1;stroke-miterlimit:10;" d="M 171.195312 143.179688 L 179.480469 144.886719 "/>
<path style="fill:none;stroke-width:1.2;stroke-linecap:butt;stroke-linejoin:miter;stroke:rgb(0%,0%,100%);stroke-opacity:1;stroke-miterlimit:10;" d="M 179.480469 144.886719 L 187.769531 146.589844 "/>
<path style="fill:none;stroke-width:1.2;stroke-linecap:butt;stroke-linejoin:miter;stroke:rgb(0%,0%,0%);stroke-opacity:1;stroke-miterlimit:10;" d="M 165.859375 127.121094 L 177.097656 114.46875 "/>
<path style="fill:none;stroke-width:1.2;stroke-linecap:butt;stroke-linejoin:miter;stroke:rgb(0%,0%,0%);stroke-opacity:1;stroke-miterlimit:10;" d="M 164.003906 123.210938 L 172.996094 113.089844 "/>
<path style="fill:none;stroke-width:1.2;stroke-linecap:butt;stroke-linejoin:miter;stroke:rgb(0%,0%,0%);stroke-opacity:1;stroke-miterlimit:10;" d="M 149.28125 123.710938 L 165.859375 127.121094 "/>
<path style="fill:none;stroke-width:1.2;stroke-linecap:butt;stroke-linejoin:miter;stroke:rgb(0%,0%,0%);stroke-opacity:1;stroke-miterlimit:10;" d="M 177.097656 114.46875 L 171.761719 98.410156 "/>
<path style="fill:none;stroke-width:1.2;stroke-linecap:butt;stroke-linejoin:miter;stroke:rgb(0%,0%,0%);stroke-opacity:1;stroke-miterlimit:10;" d="M 171.761719 98.410156 L 155.1875 95 "/>
<path style="fill:none;stroke-width:1.2;stroke-linecap:butt;stroke-linejoin:miter;stroke:rgb(0%,0%,0%);stroke-opacity:1;stroke-miterlimit:10;" d="M 169.300781 101.96875 L 156.042969 99.242188 "/>
<path style="fill:none;stroke-width:1.2;stroke-linecap:butt;stroke-linejoin:miter;stroke:rgb(0%,0%,0%);stroke-opacity:1;stroke-miterlimit:10;" d="M 155.1875 95 L 143.945312 107.652344 "/>
<path style="fill:none;stroke-width:1.2;stroke-linecap:butt;stroke-linejoin:miter;stroke:rgb(0%,0%,0%);stroke-opacity:1;stroke-miterlimit:10;" d="M 143.945312 107.652344 L 149.28125 123.710938 "/>
<path style="fill:none;stroke-width:1.2;stroke-linecap:butt;stroke-linejoin:miter;stroke:rgb(0%,0%,0%);stroke-opacity:1;stroke-miterlimit:10;" d="M 148.257812 108 L 152.527344 120.851562 "/>
<path style="fill:none;stroke-width:1.2;stroke-linecap:butt;stroke-linejoin:miter;stroke:rgb(0%,0%,100%);stroke-opacity:1;stroke-miterlimit:10;" d="M 187.769531 146.589844 L 190.4375 154.621094 "/>
<path style="fill:none;stroke-width:1.2;stroke-linecap:butt;stroke-linejoin:miter;stroke:rgb(0%,0%,0%);stroke-opacity:1;stroke-miterlimit:10;" d="M 190.4375 154.621094 L 193.105469 162.652344 "/>
<path style=" stroke:none;fill-rule:nonzero;fill:rgb(100%,100%,100%);fill-opacity:1;" d="M 180.769531 141.089844 L 194.769531 141.089844 L 194.769531 152.089844 L 180.769531 152.089844 Z M 180.769531 141.089844 "/>
<g style="fill:rgb(0%,0%,100%);fill-opacity:1;">
  <use xlink:href="#glyph0-1" x="180.769531" y="149.75293"/>
  <use xlink:href="#glyph0-2" x="187.74707" y="149.75293"/>
</g>
<path style="fill:none;stroke-width:1.2;stroke-linecap:butt;stroke-linejoin:miter;stroke:rgb(0%,0%,0%);stroke-opacity:1;stroke-miterlimit:10;" d="M 191.617188 161.328125 L 185.996094 167.65625 "/>
<path style="fill:none;stroke-width:1.2;stroke-linecap:butt;stroke-linejoin:miter;stroke:rgb(100%,0%,0%);stroke-opacity:1;stroke-miterlimit:10;" d="M 185.996094 167.65625 L 180.378906 173.980469 "/>
<path style="fill:none;stroke-width:1.2;stroke-linecap:butt;stroke-linejoin:miter;stroke:rgb(0%,0%,0%);stroke-opacity:1;stroke-miterlimit:10;" d="M 194.59375 163.972656 L 188.972656 170.300781 "/>
<path style="fill:none;stroke-width:1.2;stroke-linecap:butt;stroke-linejoin:miter;stroke:rgb(100%,0%,0%);stroke-opacity:1;stroke-miterlimit:10;" d="M 188.972656 170.300781 L 183.355469 176.625 "/>
<path style="fill:none;stroke-width:1.2;stroke-linecap:butt;stroke-linejoin:miter;stroke:rgb(0%,0%,0%);stroke-opacity:1;stroke-miterlimit:10;" d="M 193.105469 162.652344 L 201.394531 164.355469 "/>
<path style="fill:none;stroke-width:1.2;stroke-linecap:butt;stroke-linejoin:miter;stroke:rgb(100%,0%,0%);stroke-opacity:1;stroke-miterlimit:10;" d="M 201.394531 164.355469 L 209.683594 166.0625 "/>
<path style=" stroke:none;fill-rule:nonzero;fill:rgb(100%,100%,100%);fill-opacity:1;" d="M 173.867188 169.804688 L 181.867188 169.804688 L 181.867188 180.804688 L 173.867188 180.804688 Z M 173.867188 169.804688 "/>
<g style="fill:rgb(100%,0%,0%);fill-opacity:1;">
  <use xlink:href="#glyph0-3" x="173.867188" y="178.467773"/>
</g>
<path style="fill:none;stroke-width:1.2;stroke-linecap:butt;stroke-linejoin:miter;stroke:rgb(100%,0%,0%);stroke-opacity:1;stroke-miterlimit:10;" d="M 209.683594 166.0625 L 212.351562 174.089844 "/>
<path style="fill:none;stroke-width:1.2;stroke-linecap:butt;stroke-linejoin:miter;stroke:rgb(0%,0%,0%);stroke-opacity:1;stroke-miterlimit:10;" d="M 212.351562 174.089844 L 215.019531 182.121094 "/>
<path style=" stroke:none;fill-rule:nonzero;fill:rgb(100%,100%,100%);fill-opacity:1;" d="M 205.683594 160.5625 L 213.683594 160.5625 L 213.683594 171.5625 L 205.683594 171.5625 Z M 205.683594 160.5625 "/>
<g style="fill:rgb(100%,0%,0%);fill-opacity:1;">
  <use xlink:href="#glyph0-3" x="205.683594" y="169.225586"/>
</g>
<path style="fill:none;stroke-width:1.2;stroke-linecap:butt;stroke-linejoin:miter;stroke:rgb(0%,0%,0%);stroke-opacity:1;stroke-miterlimit:10;" d="M 215.019531 182.121094 L 231.597656 185.53125 "/>
<path style="fill:none;stroke-width:1.2;stroke-linecap:butt;stroke-linejoin:miter;stroke:rgb(0%,0%,0%);stroke-opacity:1;stroke-miterlimit:10;" d="M 231.597656 185.53125 L 236.933594 201.589844 "/>
<path style="fill:none;stroke-width:1.2;stroke-linecap:butt;stroke-linejoin:miter;stroke:rgb(0%,0%,0%);stroke-opacity:1;stroke-miterlimit:10;" d="M 235.910156 185.882812 L 240.175781 198.730469 "/>
<path style="fill:none;stroke-width:1.2;stroke-linecap:butt;stroke-linejoin:miter;stroke:rgb(0%,0%,0%);stroke-opacity:1;stroke-miterlimit:10;" d="M 242.835938 172.878906 L 231.597656 185.53125 "/>
<path style="fill:none;stroke-width:1.2;stroke-linecap:butt;stroke-linejoin:miter;stroke:rgb(0%,0%,0%);stroke-opacity:1;stroke-miterlimit:10;" d="M 236.933594 201.589844 L 253.507812 205 "/>
<path style="fill:none;stroke-width:1.2;stroke-linecap:butt;stroke-linejoin:miter;stroke:rgb(0%,0%,0%);stroke-opacity:1;stroke-miterlimit:10;" d="M 253.507812 205 L 264.75 192.347656 "/>
<path style="fill:none;stroke-width:1.2;stroke-linecap:butt;stroke-linejoin:miter;stroke:rgb(0%,0%,0%);stroke-opacity:1;stroke-miterlimit:10;" d="M 251.65625 201.089844 L 260.648438 190.96875 "/>
<path style="fill:none;stroke-width:1.2;stroke-linecap:butt;stroke-linejoin:miter;stroke:rgb(0%,0%,0%);stroke-opacity:1;stroke-miterlimit:10;" d="M 264.75 192.347656 L 259.414062 176.289062 "/>
<path style="fill:none;stroke-width:1.2;stroke-linecap:butt;stroke-linejoin:miter;stroke:rgb(0%,0%,0%);stroke-opacity:1;stroke-miterlimit:10;" d="M 259.414062 176.289062 L 242.835938 172.878906 "/>
<path style="fill:none;stroke-width:1.2;stroke-linecap:butt;stroke-linejoin:miter;stroke:rgb(0%,0%,0%);stroke-opacity:1;stroke-miterlimit:10;" d="M 256.953125 179.847656 L 243.691406 177.121094 "/>
<path style="fill:none;stroke-width:1.2;stroke-linecap:butt;stroke-linejoin:miter;stroke:rgb(0%,0%,0%);stroke-opacity:1;stroke-miterlimit:10;" d="M 126.6875 175.546875 L 125.453125 167.175781 "/>
<path style="fill:none;stroke-width:1.2;stroke-linecap:butt;stroke-linejoin:miter;stroke:rgb(100%,0%,0%);stroke-opacity:1;stroke-miterlimit:10;" d="M 125.453125 167.175781 L 124.21875 158.804688 "/>
<path style="fill:none;stroke-width:1.2;stroke-linecap:butt;stroke-linejoin:miter;stroke:rgb(0%,0%,0%);stroke-opacity:1;stroke-miterlimit:10;" d="M 122.746094 176.128906 L 121.511719 167.753906 "/>
<path style="fill:none;stroke-width:1.2;stroke-linecap:butt;stroke-linejoin:miter;stroke:rgb(100%,0%,0%);stroke-opacity:1;stroke-miterlimit:10;" d="M 121.511719 167.753906 L 120.28125 159.382812 "/>
<path style="fill:none;stroke-width:1.2;stroke-linecap:butt;stroke-linejoin:miter;stroke:rgb(0%,0%,0%);stroke-opacity:1;stroke-miterlimit:10;" d="M 124.714844 175.835938 L 118.082031 181.089844 "/>
<path style="fill:none;stroke-width:1.2;stroke-linecap:butt;stroke-linejoin:miter;stroke:rgb(0%,0%,100%);stroke-opacity:1;stroke-miterlimit:10;" d="M 118.082031 181.089844 L 111.449219 186.34375 "/>
<path style=" stroke:none;fill-rule:nonzero;fill:rgb(100%,100%,100%);fill-opacity:1;" d="M 118.25 153.59375 L 126.25 153.59375 L 126.25 164.59375 L 118.25 164.59375 Z M 118.25 153.59375 "/>
<g style="fill:rgb(100%,0%,0%);fill-opacity:1;">
  <use xlink:href="#glyph0-3" x="118.25" y="162.256836"/>
</g>
<path style="fill:none;stroke-width:1;stroke-linecap:butt;stroke-linejoin:miter;stroke:rgb(0%,0%,0%);stroke-opacity:1;stroke-miterlimit:10;" d="M 95.714844 180.109375 L 95.714844 180.109375 M 98.269531 181.683594 L 98.65625 180.710938 M 100.824219 183.253906 L 101.59375 181.316406 M 103.378906 184.828125 L 104.53125 181.921875 M 105.933594 186.402344 L 107.46875 182.523438 M 108.488281 187.976562 L 110.410156 183.128906 M 110.347656 189.121094 L 112.550781 183.566406 "/>
<path style=" stroke:none;fill-rule:nonzero;fill:rgb(100%,100%,100%);fill-opacity:1;" d="M 104.449219 180.84375 L 118.449219 180.84375 L 118.449219 191.84375 L 104.449219 191.84375 Z M 104.449219 180.84375 "/>
<g style="fill:rgb(0%,0%,100%);fill-opacity:1;">
  <use xlink:href="#glyph0-1" x="104.449219" y="189.506836"/>
  <use xlink:href="#glyph0-2" x="111.426758" y="189.506836"/>
</g>
<path style="fill:none;stroke-width:1.2;stroke-linecap:butt;stroke-linejoin:miter;stroke:rgb(0%,0%,0%);stroke-opacity:1;stroke-miterlimit:10;" d="M 95.714844 180.109375 L 82.449219 190.617188 "/>
<path style="fill:none;stroke-width:1.2;stroke-linecap:butt;stroke-linejoin:miter;stroke:rgb(0%,0%,0%);stroke-opacity:1;stroke-miterlimit:10;" d="M 95.714844 180.109375 L 93.25 163.363281 "/>
<path style="fill:none;stroke-width:1.2;stroke-linecap:butt;stroke-linejoin:miter;stroke:rgb(0%,0%,0%);stroke-opacity:1;stroke-miterlimit:10;" d="M 82.449219 190.617188 L 66.714844 184.378906 "/>
<path style="fill:none;stroke-width:1.2;stroke-linecap:butt;stroke-linejoin:miter;stroke:rgb(0%,0%,0%);stroke-opacity:1;stroke-miterlimit:10;" d="M 66.714844 184.378906 L 64.25 167.636719 "/>
<path style="fill:none;stroke-width:1.2;stroke-linecap:butt;stroke-linejoin:miter;stroke:rgb(0%,0%,0%);stroke-opacity:1;stroke-miterlimit:10;" d="M 62.53125 183.285156 L 60.558594 169.890625 "/>
<path style="fill:none;stroke-width:1.2;stroke-linecap:butt;stroke-linejoin:miter;stroke:rgb(0%,0%,0%);stroke-opacity:1;stroke-miterlimit:10;" d="M 53.449219 194.886719 L 66.714844 184.378906 "/>
<path style="fill:none;stroke-width:1.2;stroke-linecap:butt;stroke-linejoin:miter;stroke:rgb(0%,0%,0%);stroke-opacity:1;stroke-miterlimit:10;" d="M 64.25 167.636719 L 48.515625 161.398438 "/>
<path style="fill:none;stroke-width:1.2;stroke-linecap:butt;stroke-linejoin:miter;stroke:rgb(0%,0%,0%);stroke-opacity:1;stroke-miterlimit:10;" d="M 48.515625 161.398438 L 35.25 171.90625 "/>
<path style="fill:none;stroke-width:1.2;stroke-linecap:butt;stroke-linejoin:miter;stroke:rgb(0%,0%,0%);stroke-opacity:1;stroke-miterlimit:10;" d="M 49.664062 165.574219 L 39.050781 173.980469 "/>
<path style="fill:none;stroke-width:1.2;stroke-linecap:butt;stroke-linejoin:miter;stroke:rgb(0%,0%,0%);stroke-opacity:1;stroke-miterlimit:10;" d="M 35.25 171.90625 L 37.714844 188.652344 "/>
<path style="fill:none;stroke-width:1.2;stroke-linecap:butt;stroke-linejoin:miter;stroke:rgb(0%,0%,0%);stroke-opacity:1;stroke-miterlimit:10;" d="M 37.714844 188.652344 L 53.449219 194.886719 "/>
<path style="fill:none;stroke-width:1.2;stroke-linecap:butt;stroke-linejoin:miter;stroke:rgb(0%,0%,0%);stroke-opacity:1;stroke-miterlimit:10;" d="M 40.757812 185.574219 L 53.34375 190.5625 "/>
<path style="fill:none;stroke-width:1.2;stroke-linecap:butt;stroke-linejoin:miter;stroke:rgb(0%,0%,0%);stroke-opacity:1;stroke-miterlimit:10;" d="M 93.25 163.363281 L 85.382812 160.246094 "/>
<path style="fill:none;stroke-width:1.2;stroke-linecap:butt;stroke-linejoin:miter;stroke:rgb(100%,0%,0%);stroke-opacity:1;stroke-miterlimit:10;" d="M 85.382812 160.246094 L 77.515625 157.128906 "/>
<path style=" stroke:none;fill-rule:nonzero;fill:rgb(100%,100%,100%);fill-opacity:1;" d="M 62.515625 151.628906 L 77.515625 151.628906 L 77.515625 162.628906 L 62.515625 162.628906 Z M 62.515625 151.628906 "/>
<g style="fill:rgb(100%,0%,0%);fill-opacity:1;">
  <use xlink:href="#glyph0-2" x="62.515625" y="160.291992"/>
  <use xlink:href="#glyph0-3" x="69.530273" y="160.291992"/>
</g>
</g>
</svg>

<svg xmlns="http://www.w3.org/2000/svg" xmlns:xlink="http://www.w3.org/1999/xlink" width="300pt" height="300pt" viewBox="0 0 300 300"><defs><symbol overflow="visible"><path d="M.453 1.594v-7.938h4.5v7.938zm.5-.5h3.5v-6.938h-3.5zm0 0"/></symbol><symbol overflow="visible" id="a"><path d="M.89-6.563H2.08l2.906 5.485v-5.484h.86V0H4.656L1.75-5.484V0H.89zm0 0"/></symbol><symbol overflow="visible" id="b"><path d="M.89-6.563h.876v2.688H5v-2.688h.89V0H5v-3.125H1.766V0H.89zm0 0"/></symbol><symbol overflow="visible" id="c"><path d="M3.547-5.953c-.65 0-1.164.242-1.547.72-.375.48-.563 1.13-.563 1.952 0 .835.188 1.49.563 1.967.383.48.898.72 1.547.72.644 0 1.156-.24 1.53-.72.376-.476.564-1.132.564-1.968 0-.822-.187-1.474-.562-1.954-.375-.477-.887-.72-1.53-.72zm0-.734c.914 0 1.648.312 2.203.937.55.617.828 1.438.828 2.47 0 1.042-.277 1.87-.828 2.483-.555.617-1.29.922-2.203.922-.93 0-1.668-.305-2.22-.922C.774-1.41.5-2.237.5-3.28c0-1.033.273-1.853.828-2.47.55-.625 1.29-.938 2.22-.938zm0 0"/></symbol></defs><g><path fill="#fff" d="M0 0h300v300H0z"/><path d="M140.45 182.074l-.49 17.176 5.91-.867zm0 0"/><path d="M140.45 182.074l13.265-10.508M140.45 182.074l-15.735-6.238" stroke-width="1.2" stroke="#000" stroke-miterlimit="10" fill="none"/><path d="M153.715 171.566m3 .086l-.153-1.03m3.153 1.116l-.305-2.066m3.305 2.148l-.457-3.093m3.453 3.18l-.605-4.126m3.606 4.212l-.76-5.156m2.945 5.22l-.872-5.91" stroke="#000" stroke-miterlimit="10" fill="none"/><path d="M159.953 155.832l-6.238 15.734M170.46 169.102l-10.507-13.27" stroke-width="1.2" stroke="#000" stroke-miterlimit="10" fill="none"/><path d="M159.953 155.832m-2.242-1.992l-.546.887m-1.695-2.88l-1.095 1.774m-1.148-3.765l-1.64 2.665m-.603-4.66l-2.187 3.554m-.055-5.547l-2.734 4.442m1.097-5.892l-3.128 5.086" stroke="#000" stroke-miterlimit="10" fill="none"/><path d="M159.953 155.832l11.242-12.652" stroke-width="1.2" stroke="#000" stroke-miterlimit="10" fill="none"/><path d="M171.195 143.18l-2.504-17-5.667 1.882zm0 0"/><path d="M171.195 143.18l8.285 1.707" stroke-width="1.2" stroke="#000" stroke-miterlimit="10" fill="none"/><path d="M179.48 144.887l8.29 1.703" stroke-width="1.2" stroke="#00f" stroke-miterlimit="10" fill="none"/><path d="M165.86 127.12l11.238-12.65M164.004 123.21l8.992-10.12M149.28 123.71l16.58 3.41M177.098 114.47l-5.336-16.06M171.762 98.41L155.187 95M169.3 101.97l-13.257-2.728M155.188 95l-11.243 12.652M143.945 107.652l5.336 16.06M148.258 108l4.27 12.852" stroke-width="1.2" stroke="#000" stroke-miterlimit="10" fill="none"/><path d="M187.77 146.59l2.667 8.03" stroke-width="1.2" stroke="#00f" stroke-miterlimit="10" fill="none"/><path d="M190.438 154.62l2.667 8.032" stroke-width="1.2" stroke="#000" stroke-miterlimit="10" fill="none"/><path d="M180.77 141.09h14v11h-14zm0 0" fill="#fff"/><g fill="#00f"><use xlink:href="#a" x="180.77" y="149.753"/><use xlink:href="#b" x="187.747" y="149.753"/></g><path d="M191.617 161.328l-5.62 6.328" stroke-width="1.2" stroke="#000" stroke-miterlimit="10" fill="none"/><path d="M185.996 167.656l-5.617 6.324" stroke-width="1.2" stroke="#f00" stroke-miterlimit="10" fill="none"/><path d="M194.594 163.973l-5.62 6.328" stroke-width="1.2" stroke="#000" stroke-miterlimit="10" fill="none"/><path d="M188.973 170.3l-5.618 6.325" stroke-width="1.2" stroke="#f00" stroke-miterlimit="10" fill="none"/><path d="M193.105 162.652l8.29 1.703" stroke-width="1.2" stroke="#000" stroke-miterlimit="10" fill="none"/><path d="M201.395 164.355l8.29 1.708" stroke-width="1.2" stroke="#f00" stroke-miterlimit="10" fill="none"/><path d="M173.867 169.805h8v11h-8zm0 0" fill="#fff"/><use xlink:href="#c" x="173.867" y="178.468" fill="#f00"/><path d="M209.684 166.063l2.668 8.027" stroke-width="1.2" stroke="#f00" stroke-miterlimit="10" fill="none"/><path d="M212.352 174.09l2.668 8.03" stroke-width="1.2" stroke="#000" stroke-miterlimit="10" fill="none"/><path d="M205.684 160.563h8v11h-8zm0 0" fill="#fff"/><use xlink:href="#c" x="205.684" y="169.226" fill="#f00"/><path d="M215.02 182.12l16.578 3.41M231.598 185.53l5.336 16.06M235.91 185.883l4.266 12.847M242.836 172.88l-11.238 12.65M236.934 201.59l16.574 3.41M253.508 205l11.242-12.652M251.656 201.09l8.992-10.12M264.75 192.348l-5.336-16.06M259.414 176.29l-16.578-3.41M256.953 179.848l-13.262-2.727M126.688 175.547l-1.235-8.37" stroke-width="1.2" stroke="#000" stroke-miterlimit="10" fill="none"/><path d="M125.453 167.176l-1.234-8.37" stroke-width="1.2" stroke="#f00" stroke-miterlimit="10" fill="none"/><path d="M122.746 176.13l-1.234-8.376" stroke-width="1.2" stroke="#000" stroke-miterlimit="10" fill="none"/><path d="M121.512 167.754l-1.23-8.37" stroke-width="1.2" stroke="#f00" stroke-miterlimit="10" fill="none"/><path d="M124.715 175.836l-6.633 5.254" stroke-width="1.2" stroke="#000" stroke-miterlimit="10" fill="none"/><path d="M118.082 181.09l-6.633 5.254" stroke-width="1.2" stroke="#00f" stroke-miterlimit="10" fill="none"/><path d="M118.25 153.594h8v11h-8zm0 0" fill="#fff"/><use xlink:href="#c" x="118.25" y="162.257" fill="#f00"/><path d="M95.715 180.11m2.555 1.574l.386-.973m2.168 2.544l.77-1.938m1.785 3.512l1.15-2.906m1.404 4.48l1.535-3.88m1.018 5.455l1.922-4.848m-.062 5.99l2.203-5.554" stroke="#000" stroke-miterlimit="10" fill="none"/><path d="M104.45 180.844h14v11h-14zm0 0" fill="#fff"/><g fill="#00f"><use xlink:href="#a" x="104.449" y="189.507"/><use xlink:href="#b" x="111.427" y="189.507"/></g><path d="M95.715 180.11L82.45 190.616M95.715 180.11l-2.465-16.747M82.45 190.617l-15.735-6.238M66.715 184.38l-2.465-16.743M62.53 183.285l-1.97-13.394M53.45 194.887l13.265-10.508M64.25 167.637l-15.734-6.24M48.516 161.398L35.25 171.906M49.664 165.574L39.05 173.98M35.25 171.906l2.465 16.746M37.715 188.652l15.734 6.235M40.758 185.574l12.586 4.988M93.25 163.363l-7.867-3.117" stroke-width="1.2" stroke="#000" stroke-miterlimit="10" fill="none"/><path d="M85.383 160.246l-7.867-3.117" stroke-width="1.2" stroke="#f00" stroke-miterlimit="10" fill="none"/><path d="M62.516 151.63h15v11h-15zm0 0" fill="#fff"/><g fill="#f00"><use xlink:href="#b" x="62.516" y="160.292"/><use xlink:href="#c" x="69.53" y="160.292"/></g></g></svg>
